elementary-xfce/apps/64/postscript-viewer.svg

<?xml version="1.0" encoding="UTF-8" standalone="no"?>
<svg
   xmlns:dc="http://purl.org/dc/elements/1.1/"
   xmlns:cc="http://creativecommons.org/ns#"
   xmlns:rdf="http://www.w3.org/1999/02/22-rdf-syntax-ns#"
   xmlns:svg="http://www.w3.org/2000/svg"
   xmlns="http://www.w3.org/2000/svg"
   xmlns:xlink="http://www.w3.org/1999/xlink"
   version="1.1"
   width="64"
   height="64"
   id="svg6086">
  <defs
     id="defs6088">
    <linearGradient
       x1="23.99999"
       y1="4.999989"
       x2="23.99999"
       y2="43"
       id="linearGradient3966"
       xlink:href="#linearGradient3924-2-2-5-8"
       gradientUnits="userSpaceOnUse"
       gradientTransform="matrix(1.4324324,0,0,1.4324324,-2.378381,-2.3783712)" />
    <linearGradient
       id="linearGradient3924-2-2-5-8">
      <stop
         id="stop3926-9-4-9-6"
         style="stop-color:#ffffff;stop-opacity:1"
         offset="0" />
      <stop
         id="stop3928-9-8-6-5"
         style="stop-color:#ffffff;stop-opacity:0.23529412"
         offset="0.06316455" />
      <stop
         id="stop3930-3-5-1-7"
         style="stop-color:#ffffff;stop-opacity:0.15686275"
         offset="0.95056331" />
      <stop
         id="stop3932-8-0-4-8"
         style="stop-color:#ffffff;stop-opacity:0.39215687"
         offset="1" />
    </linearGradient>
    <linearGradient
       x1="167.98311"
       y1="8.50811"
       x2="167.98311"
       y2="54.780239"
       id="linearGradient4385-4"
       xlink:href="#linearGradient5803-2-7"
       gradientUnits="userSpaceOnUse"
       gradientTransform="translate(-58.000052,3.759402e-6)" />
    <linearGradient
       id="linearGradient5803-2-7">
      <stop
         id="stop5805-3-6"
         style="stop-color:#fffdf3;stop-opacity:1"
         offset="0" />
      <stop
         id="stop5807-0-0"
         style="stop-color:#fbebeb;stop-opacity:1"
         offset="1" />
    </linearGradient>
    <radialGradient
       cx="8.276144"
       cy="9.9941158"
       r="12.671875"
       fx="8.276144"
       fy="9.9941158"
       id="radialGradient3969"
       xlink:href="#linearGradient3242"
       gradientUnits="userSpaceOnUse"
       gradientTransform="matrix(0,9.4032488,-11.544185,0,147.47589,-87.114158)" />
    <linearGradient
       id="linearGradient3242">
      <stop
         id="stop3244"
         style="stop-color:#f89b7e;stop-opacity:1"
         offset="0" />
      <stop
         id="stop3246"
         style="stop-color:#e35d4f;stop-opacity:1"
         offset="0.26238" />
      <stop
         id="stop3248"
         style="stop-color:#c6262e;stop-opacity:1"
         offset="0.66093999" />
      <stop
         id="stop3250"
         style="stop-color:#690b2c;stop-opacity:1"
         offset="1" />
    </linearGradient>
    <radialGradient
       cx="4.9929786"
       cy="43.5"
       r="2.5"
       fx="4.9929786"
       fy="43.5"
       id="radialGradient3337-2-2"
       xlink:href="#linearGradient3688-166-749-4-0-3-8"
       gradientUnits="userSpaceOnUse"
       gradientTransform="matrix(2.003784,0,0,1.4,27.98813,-17.4)" />
    <linearGradient
       id="linearGradient3688-166-749-4-0-3-8">
      <stop
         id="stop2883-4-0-1-8"
         style="stop-color:#181818;stop-opacity:1"
         offset="0" />
      <stop
         id="stop2885-9-2-9-6"
         style="stop-color:#181818;stop-opacity:0"
         offset="1" />
    </linearGradient>
    <radialGradient
       cx="4.9929786"
       cy="43.5"
       r="2.5"
       fx="4.9929786"
       fy="43.5"
       id="radialGradient3339-1-4"
       xlink:href="#linearGradient3688-464-309-9-2-4-2"
       gradientUnits="userSpaceOnUse"
       gradientTransform="matrix(2.003784,0,0,1.4,-20.01187,-104.4)" />
    <linearGradient
       id="linearGradient3688-464-309-9-2-4-2">
      <stop
         id="stop2889-7-9-6-9"
         style="stop-color:#181818;stop-opacity:1"
         offset="0" />
      <stop
         id="stop2891-6-6-1-7"
         style="stop-color:#181818;stop-opacity:0"
         offset="1" />
    </linearGradient>
    <linearGradient
       id="linearGradient3702-501-757-8-4-1-1">
      <stop
         id="stop2895-8-9-9-1"
         style="stop-color:#181818;stop-opacity:0"
         offset="0" />
      <stop
         id="stop2897-7-8-7-7"
         style="stop-color:#181818;stop-opacity:1"
         offset="0.5" />
      <stop
         id="stop2899-4-5-1-5"
         style="stop-color:#181818;stop-opacity:0"
         offset="1" />
    </linearGradient>
    <linearGradient
       x1="25.058096"
       y1="47.027729"
       x2="25.058096"
       y2="39.999443"
       id="linearGradient6084"
       xlink:href="#linearGradient3702-501-757-8-4-1-1"
       gradientUnits="userSpaceOnUse" />
  </defs>
  <metadata
     id="metadata6091">
    <rdf:RDF>
      <cc:Work
         rdf:about="">
        <dc:format>image/svg+xml</dc:format>
        <dc:type
           rdf:resource="http://purl.org/dc/dcmitype/StillImage" />
        <dc:title />
      </cc:Work>
    </rdf:RDF>
  </metadata>
  <g
     id="layer1">
    <g
       transform="matrix(1.5789502,0,0,0.7142857,-5.894751,27.928572)"
       id="g3712-8-2-4-4"
       style="opacity:0.6">
      <rect
         width="5"
         height="7"
         x="38"
         y="40"
         id="rect2801-5-5-7-9"
         style="fill:url(#radialGradient3337-2-2);fill-opacity:1;stroke:none" />
      <rect
         width="5"
         height="7"
         x="-10"
         y="-47"
         transform="scale(-1,-1)"
         id="rect3696-3-0-3-7"
         style="fill:url(#radialGradient3339-1-4);fill-opacity:1;stroke:none" />
      <rect
         width="28"
         height="7.0000005"
         x="10"
         y="40"
         id="rect3700-5-6-8-4"
         style="fill:url(#linearGradient6084);fill-opacity:1;stroke:none" />
    </g>
    <rect
       width="55"
       height="55"
       rx="3"
       ry="3"
       x="4.499999"
       y="4.5000019"
       id="rect5505-21-3-8-5-2"
       style="color:#000000;fill:url(#radialGradient3969);fill-opacity:1;fill-rule:nonzero;stroke:none;stroke-width:0.99999994;marker:none;visibility:visible;display:inline;overflow:visible;enable-background:accumulate" />
    <path
       d="m 37.218749,5.0000018 a 1.0061134,1.0061134 0 0 0 -0.46875,0.25 C 18.452009,20.950672 8.148589,23.055552 4.937499,23.281252 a 1.0061134,1.0061134 0 0 0 -0.4375,0.125 l 0,7.40625 a 1.0061134,1.0061134 0 0 0 0.625,0.125 c 2.72398,-0.38034 9.5163,-1.68802 16.75,-6.21875 7.2211,-4.52284 13.9795,-10.80142 17.21875,-13.90625 -0.87421,3.60272 -1.48484,8.60515 -1.90625,15 -0.59427,9.0181 -0.81144,20.56321 -0.84375,33.6875 l 20.15625,0 c 1.662,0 3,-1.338 3,-3 l 0,-0.59375 c -3.19684,-7.02775 -5.41169,-16.95478 -7.0625,-25.90625 -0.003,-0.0216 0.003,-0.0409 0,-0.0625 -1.43048,-10.95748 0.70965,-20.6015602 1.5,-23.6875002 a 1.0061134,1.0061134 0 0 0 -0.96875,-1.25 l -15.5625,0 a 1.0061134,1.0061134 0 0 0 -0.1875,0 z M 4.812499,32.531252 a 1.0061134,1.0061134 0 0 0 -0.3125,0.125 l 0,8.03125 a 1.0061134,1.0061134 0 0 0 0.5,0.125 c 3.41913,0 8.13422,2.15033 12.625,5.71875 4.23962,3.36883 8.26619,7.98568 11.03125,12.96875 l 7.09375,0 c -1.54731,-5.45614 -7.58958,-11.92127 -14,-17.28125 -3.23647,-2.70613 -6.57618,-5.11214 -9.5,-6.84375 -2.92382,-1.73161 -5.32019,-2.84375 -7.25,-2.84375 a 1.0061134,1.0061134 0 0 0 -0.1875,0 z"
       id="path4280"
       style="opacity:0.15;color:#000000;fill:#661215;fill-opacity:1;fill-rule:evenodd;stroke:none;stroke-width:1;marker:none;visibility:visible;display:inline;overflow:visible;enable-background:accumulate" />
    <path
       d="M 37.406249,6.0000018 C 19.000439,21.793192 8.497379,24.035432 4.999999,24.281252 l 0,5.65625 c 2.63982,-0.36859 9.27697,-1.63632 16.34375,-6.0625 9.06156,-5.67558 19.90625,-16.4687502 19.90625,-16.4687502 -2.9554,5.7972032 -3.84063,25.7274402 -3.90625,52.0937502 l 19.15625,0 c 0.831,0 1.58275,-0.33275 2.125,-0.875 0.23719,-0.39875 0.375,-0.87125 0.375,-1.375 -3.52094,-7.26179 -5.83507,-17.7489 -7.5625,-27.125 -1.47435,-11.18805 0.72409,-20.9734402 1.53125,-24.1250002 l -15.5625,0 z m -32.40625,27.5312502 0,6.28125 c 7.54635,0 19.08433,8.92297 24.84375,19.6875 l 4.875,0 c -3.12336,-9.98475 -23.96743,-25.96875 -29.71875,-25.96875 z"
       id="path6711-4"
       style="opacity:0.3;color:#000000;fill:#661215;fill-opacity:1;fill-rule:evenodd;stroke:none;marker:none;visibility:visible;display:inline;overflow:visible;enable-background:accumulate" />
    <path
       d="M 37.417759,5.0000038 C 19.011949,20.793192 8.497379,23.022462 4.999999,23.268282 l 0,5.67558 c 2.63982,-0.36859 9.27532,-1.64846 16.3421,-6.07464 9.06156,-5.67558 19.89474,-16.4503242 19.89474,-16.4503242 -2.97108,5.8279502 -3.83627,25.9244142 -3.89368,52.4991342 l 18.99236,0 c 1.48701,0 2.66448,-1.17568 2.66448,-2.66043 -3.52094,-7.26179 -5.82191,-17.76027 -7.54934,-27.13637 -1.47435,-11.18805 0.70271,-20.9696682 1.50986,-24.1212282 l -15.54276,0 z m -32.41776,27.5175382 0,6.28604 c 7.64124,0 19.38846,9.16931 25.07125,20.11445 l 4.77328,0 c -2.6702,-9.9502 -24.01488,-26.40049 -29.84453,-26.40049 z"
       id="path6711"
       style="color:#000000;fill:url(#linearGradient4385-4);fill-opacity:1;fill-rule:nonzero;stroke:none;marker:none;visibility:visible;display:inline;overflow:visible;enable-background:accumulate" />
    <path
       d="m 53.812499,5.0937518 c -7.23445,4.407328 -30.92926,17.8255802 -48.8125,16.1250002 l 0,12.15625 c 0,0 39.76539,5.93233 54,-5.8125 l 0,-19.6562502 c 0,-1.572136 -1.26922,-2.8125 -2.84375,-2.8125 l -2.34375,0 z m 5.1875,27.5625002 c -7.15648,7.12775 -14.51163,16.59372 -19.40625,26.34375 l 5.71875,0 c 3.96197,-6.69313 9.137,-14.05967 13.6875,-18.59375 l 0,-7.75 z"
       id="path6713"
       style="opacity:0.05;fill:#000000;fill-opacity:1;fill-rule:evenodd;stroke:none" />
    <rect
       width="53"
       height="53"
       rx="2"
       ry="2"
       x="5.499999"
       y="5.5000019"
       id="rect6741-5-0-2-3"
       style="opacity:0.5;fill:none;stroke:url(#linearGradient3966);stroke-width:1;stroke-linecap:round;stroke-linejoin:round;stroke-miterlimit:4;stroke-opacity:1;stroke-dasharray:none;stroke-dashoffset:0" />
    <rect
       width="55"
       height="55"
       rx="3"
       ry="3"
       x="4.499999"
       y="4.5000019"
       id="rect5505-21-3-8-9-1-1"
       style="opacity:0.35;color:#000000;fill:none;stroke:#410000;stroke-width:1;stroke-linecap:round;stroke-linejoin:round;stroke-miterlimit:4;stroke-opacity:1;stroke-dasharray:none;stroke-dashoffset:0;marker:none;visibility:visible;display:inline;overflow:visible;enable-background:accumulate" />
  </g>
</svg>

<?xml version="1.0" encoding="UTF-8" standalone="no"?>
<svg
   version="1.1"
   width="64"
   height="64"
   id="svg6086"
   sodipodi:docname="postscript-viewer.svg"
   inkscape:version="1.2.2 (b0a8486541, 2022-12-01)"
   xmlns:inkscape="http://www.inkscape.org/namespaces/inkscape"
   xmlns:sodipodi="http://sodipodi.sourceforge.net/DTD/sodipodi-0.dtd"
   xmlns:xlink="http://www.w3.org/1999/xlink"
   xmlns="http://www.w3.org/2000/svg"
   xmlns:svg="http://www.w3.org/2000/svg"
   xmlns:rdf="http://www.w3.org/1999/02/22-rdf-syntax-ns#"
   xmlns:cc="http://creativecommons.org/ns#"
   xmlns:dc="http://purl.org/dc/elements/1.1/">
  <sodipodi:namedview
     id="namedview63087"
     pagecolor="#ffffff"
     bordercolor="#000000"
     borderopacity="0.25"
     inkscape:showpageshadow="2"
     inkscape:pageopacity="0.0"
     inkscape:pagecheckerboard="0"
     inkscape:deskcolor="#d1d1d1"
     showgrid="false"
     inkscape:zoom="22.627417"
     inkscape:cx="23.5113"
     inkscape:cy="22.406446"
     inkscape:window-width="1278"
     inkscape:window-height="1005"
     inkscape:window-x="532"
     inkscape:window-y="12"
     inkscape:window-maximized="0"
     inkscape:current-layer="svg6086" />
  <defs
     id="defs6088">
    <linearGradient
       inkscape:collect="always"
       id="linearGradient63648">
      <stop
         style="stop-color:#ed5353;stop-opacity:1"
         offset="0"
         id="stop63644" />
      <stop
         style="stop-color:#c6262e;stop-opacity:1"
         offset="1"
         id="stop63646" />
    </linearGradient>
    <linearGradient
       x1="23.99999"
       y1="4.999989"
       x2="23.99999"
       y2="43"
       id="linearGradient3966"
       xlink:href="#linearGradient3924-2-2-5-8"
       gradientUnits="userSpaceOnUse"
       gradientTransform="matrix(1.4324324,0,0,1.4324324,-2.378381,-2.3783712)" />
    <linearGradient
       id="linearGradient3924-2-2-5-8">
      <stop
         id="stop3926-9-4-9-6"
         style="stop-color:#ffffff;stop-opacity:1"
         offset="0" />
      <stop
         id="stop3928-9-8-6-5"
         style="stop-color:#ffffff;stop-opacity:0.23529412"
         offset="0.06316455" />
      <stop
         id="stop3930-3-5-1-7"
         style="stop-color:#ffffff;stop-opacity:0.15686275"
         offset="0.95056331" />
      <stop
         id="stop3932-8-0-4-8"
         style="stop-color:#ffffff;stop-opacity:0.39215687"
         offset="1" />
    </linearGradient>
    <linearGradient
       id="linearGradient3688-166-749-4-0-3-8">
      <stop
         id="stop2883-4-0-1-8"
         style="stop-color:#181818;stop-opacity:1"
         offset="0" />
      <stop
         id="stop2885-9-2-9-6"
         style="stop-color:#181818;stop-opacity:0"
         offset="1" />
    </linearGradient>
    <linearGradient
       id="linearGradient3702-501-757-8-4-1-1">
      <stop
         id="stop2895-8-9-9-1"
         style="stop-color:#181818;stop-opacity:0"
         offset="0" />
      <stop
         id="stop2897-7-8-7-7"
         style="stop-color:#181818;stop-opacity:1"
         offset="0.5" />
      <stop
         id="stop2899-4-5-1-5"
         style="stop-color:#181818;stop-opacity:0"
         offset="1" />
    </linearGradient>
    <linearGradient
       inkscape:collect="always"
       xlink:href="#linearGradient63648"
       id="linearGradient63650"
       x1="24.651974"
       y1="4.9956245"
       x2="24.651974"
       y2="59.500004"
       gradientUnits="userSpaceOnUse" />
    <radialGradient
       cx="4.9929786"
       cy="43.5"
       r="2.5"
       fx="4.9929786"
       fy="43.5"
       id="radialGradient3337-2-2-3"
       xlink:href="#linearGradient3688-166-749-4-0-3-8"
       gradientUnits="userSpaceOnUse"
       gradientTransform="matrix(2.4045407,0,0,0.99999998,41.985755,15.500001)" />
    <radialGradient
       cx="4.9929786"
       cy="43.5"
       r="2.5"
       fx="4.9929786"
       fy="43.5"
       id="radialGradient3339-1-4-5"
       xlink:href="#linearGradient3688-166-749-4-0-3-8"
       gradientUnits="userSpaceOnUse"
       gradientTransform="matrix(2.4045407,0,0,0.99999998,-22.014244,-102.5)" />
    <linearGradient
       x1="25.058096"
       y1="47.027729"
       x2="25.058096"
       y2="39.999443"
       id="linearGradient6394"
       xlink:href="#linearGradient3702-501-757-8-4-1-1"
       gradientUnits="userSpaceOnUse"
       gradientTransform="matrix(1.5714286,0,0,0.7142857,-5.7142853,27.928572)" />
  </defs>
  <metadata
     id="metadata6091">
    <rdf:RDF>
      <cc:Work
         rdf:about="">
        <dc:format>image/svg+xml</dc:format>
        <dc:type
           rdf:resource="http://purl.org/dc/dcmitype/StillImage" />
      </cc:Work>
    </rdf:RDF>
  </metadata>
  <g
     id="g2207">
    <rect
       style="opacity:0.4;fill:url(#radialGradient3337-2-2-3);fill-opacity:1;stroke:none;stroke-width:1.06199"
       id="rect2801-5-5-7-9"
       y="56.5"
       x="54"
       height="5"
       width="6" />
    <rect
       style="opacity:0.4;fill:url(#radialGradient3339-1-4-5);fill-opacity:1;stroke:none;stroke-width:1.06199"
       id="rect3696-3-0-3-7"
       transform="scale(-1)"
       y="-61.5"
       x="-10"
       height="5"
       width="6" />
    <rect
       style="opacity:0.4;fill:url(#linearGradient6394);fill-opacity:1;stroke:none;stroke-width:1.06199"
       id="rect3700-5-6-8-4"
       y="56.5"
       x="10"
       height="5.0000005"
       width="44" />
  </g>
  <rect
     width="55"
     height="55"
     rx="6"
     ry="6"
     x="4.499999"
     y="4.5000019"
     id="rect5505-21-3-8-5-2"
     style="color:#000000;display:inline;overflow:visible;visibility:visible;fill:url(#linearGradient63650);fill-opacity:1;fill-rule:nonzero;stroke:none;stroke-width:1;marker:none;enable-background:accumulate" />
  <path
     id="path4280"
     style="color:#000000;display:inline;overflow:visible;visibility:visible;opacity:0.15;fill:#661215;fill-opacity:1;fill-rule:evenodd;stroke:none;stroke-width:1;marker:none;enable-background:accumulate"
     d="M 37.21875,5 C 37.042924,5.0398315 36.88103,5.126175 36.75,5.25 18.556259,20.861219 8.2731643,23.029312 5,23.275391 v 7.636718 c 0.041088,0.0111 0.082838,0.01958 0.125,0.02539 2.7239773,-0.38034 9.516307,-1.688025 16.75,-6.21875 7.221093,-4.522835 13.979503,-10.801423 17.21875,-13.90625 -0.874209,3.602716 -1.48484,8.605156 -1.90625,15 C 36.601023,34.712344 36.384359,46.088842 36.347656,59 H 53.5 c 2.702955,0 4.92481,-1.914176 5.402344,-4.470703 C 56.024292,47.617904 53.983288,38.381992 52.4375,30 c -0.003,-0.0216 0.003,-0.0409 0,-0.0625 C 51.007021,18.980031 53.147151,9.3359369 53.9375,6.25 54.095438,5.617961 53.620206,5.004759 52.96875,5 Z M 5,32.53125 v 8.28125 c 3.4191266,0 8.134224,2.150334 12.625,5.71875 4.096449,3.255066 7.983477,7.678827 10.736328,12.46875 h 7.222656 C 33.823724,53.651428 27.966786,47.416825 21.75,42.21875 18.513533,39.512623 15.173817,37.106608 12.25,35.375 9.3261829,33.643392 6.9298081,32.53125 5,32.53125 Z"
     sodipodi:nodetypes="cccccscscscccccccccccssc" />
  <path
     id="path6711-4"
     style="color:#000000;display:inline;overflow:visible;visibility:visible;opacity:0.3;fill:#661215;fill-opacity:1;fill-rule:evenodd;stroke:none;marker:none;enable-background:accumulate"
     d="M 37.40625,6 C 19.000458,21.793174 8.4973765,24.03543 5,24.28125 V 29.9375 C 7.6398174,29.56891 14.276977,28.301176 21.34375,23.875 30.405301,18.199426 41.25,7.40625 41.25,7.40625 38.313904,13.165588 37.423536,32.889746 37.347656,59 H 53.5 c 2.160552,0 4.010766,-1.225373 4.912109,-3.021484 C 55.218737,48.796868 53.066762,38.968269 51.4375,30.125 49.963151,18.936961 52.161591,9.1515568 52.96875,6 Z M 5,33.53125 v 6.28125 c 7.428071,0 18.711562,8.650222 24.556641,19.1875 h 4.982421 C 30.904302,48.991289 10.657069,33.53125 5,33.53125 Z"
     sodipodi:nodetypes="cccsccsccccccccc" />
  <path
     id="path6711"
     style="color:#000000;display:inline;overflow:visible;visibility:visible;fill:#fafafa;fill-opacity:1;fill-rule:nonzero;stroke:none;marker:none;enable-background:accumulate"
     d="M 37.417969,5 C 19.012177,20.793172 8.4973765,23.021758 5,23.267578 v 5.675781 C 7.6398174,28.57477 14.275024,27.295316 21.341797,22.869141 30.403348,17.193566 41.236328,6.4179687 41.236328,6.4179688 38.265251,12.245913 37.40116,32.425306 37.34375,59 H 54 c 2.436391,-0.406076 3.953326,-1.737108 4.634766,-3.53125 C 55.320276,48.248063 53.117668,38.16646 51.451172,29.121094 49.976823,17.933055 52.153788,8.1515568 52.960938,5 Z M 5,32.517578 v 6.285156 c 7.641232,0 19.430497,9.252137 25.113281,20.197266 h 4.773438 C 32.216522,49.04981 10.829644,32.517578 5,32.517578 Z"
     sodipodi:nodetypes="cccscccccccccccc" />
  <rect
     width="53"
     height="53"
     rx="5"
     ry="5"
     x="5.499999"
     y="5.5000019"
     id="rect6741-5-0-2-3"
     style="opacity:0.5;fill:none;stroke:url(#linearGradient3966);stroke-width:1;stroke-linecap:round;stroke-linejoin:round;stroke-miterlimit:4;stroke-dasharray:none;stroke-dashoffset:0;stroke-opacity:1" />
  <rect
     width="55"
     height="55"
     rx="6"
     ry="6"
     x="4.499999"
     y="4.5000019"
     id="rect5505-21-3-8-9-1-1"
     style="color:#000000;display:inline;overflow:visible;visibility:visible;opacity:0.5;fill:none;stroke:#7a0000;stroke-width:1;stroke-linecap:round;stroke-linejoin:round;stroke-miterlimit:4;stroke-dasharray:none;stroke-dashoffset:0;stroke-opacity:1;marker:none;enable-background:accumulate" />
</svg>
